X: 801
T: Guan huadeng
L: 1/8
M: 4/4
K: F
c2c2c2c f [I:setbarnb 1]| 
d c B AG4 | 
c2c2c2c f | 
d c B AG4 | 
G2c2A c A G | 
c2D F G A G F | 
C2F2F2F A | 
G F E DC4 | 
G2>F2G4 | 
A G F AG4 | 
C2F2F2F A | 
G F E DC4 |]

@@@ Tune index: 9675
